antibot/app/images/dist/service-google-icon.svg

<svg width="50" height="50" viewBox="0 0 50 50" fill="none" xmlns="http://www.w3.org/2000/svg">
<g clip-path="url(#clip0_9526_13112)">
<g clip-path="url(#clip1_9526_13112)">
<path d="M28.1347 3.12579L29.9031 4.17073C33.279 6.09987 34.4848 10.4404 32.5556 13.8164L15.4346 43.4769C13.5054 46.8528 9.16486 48.0586 5.78888 46.1294L4.0205 45.0845C0.644517 43.1553 -0.561193 38.8148 1.36794 35.4388L18.489 5.69797C20.4181 2.2416 24.7587 1.03589 28.1347 3.12579Z" fill="#FBBD04"/>
<path d="M20.0961 3.93047L21.8645 2.88552C25.2405 0.956385 29.581 2.16209 31.5102 5.53808L48.6312 35.1985C50.5604 38.5745 49.3547 42.9151 45.9787 44.8442L44.2103 45.8892C40.8343 47.8183 36.4938 46.6126 34.5646 43.2366L17.4436 13.6565C15.5948 10.2805 16.7201 5.93998 20.0961 3.93047Z" fill="#438EDC"/>
<path d="M9.08359 46.5324C13.6117 46.5324 17.2824 42.8617 17.2824 38.3336C17.2824 33.8055 13.6117 30.1348 9.08359 30.1348C4.5555 30.1348 0.884766 33.8055 0.884766 38.3336C0.884766 42.8617 4.5555 46.5324 9.08359 46.5324Z" fill="#34A952"/>
</g>
</g>
<defs>
<clipPath id="clip0_9526_13112">
<rect width="50" height="46.46" fill="white" transform="translate(0 2)"/>
</clipPath>
<clipPath id="clip1_9526_13112">
<rect width="49.9967" height="46.46" fill="white" transform="translate(0.00195312 2)"/>
</clipPath>
</defs>
</svg>

<svg width="50" height="50" fill="none" xmlns="http://www.w3.org/2000/svg"><g clip-path="url(#a)"><g clip-path="url(#b)"><path d="m28.135 3.126 1.768 1.045c3.376 1.929 4.582 6.27 2.653 9.645l-17.121 29.66c-1.93 3.377-6.27 4.583-9.646 2.653L4.02 45.085c-3.376-1.93-4.582-6.27-2.653-9.646L18.489 5.698c1.93-3.456 6.27-4.662 9.646-2.572Z" fill="#FBBD04"/><path d="m20.096 3.93 1.768-1.044c3.377-1.93 7.717-.724 9.646 2.652l17.121 29.66c1.93 3.377.724 7.717-2.652 9.646L44.21 45.89c-3.376 1.93-7.716.724-9.645-2.652l-17.121-29.58c-1.85-3.377-.724-7.717 2.652-9.727Z" fill="#438EDC"/><path d="M9.084 46.532a8.199 8.199 0 1 0 0-16.397 8.199 8.199 0 0 0 0 16.397Z" fill="#34A952"/></g></g><defs><clipPath id="a"><path fill="#fff" transform="translate(0 2)" d="M0 0h50v46.46H0z"/></clipPath><clipPath id="b"><path fill="#fff" transform="translate(.002 2)" d="M0 0h49.997v46.46H0z"/></clipPath></defs></svg>
